X: 6
M:6/8
L:1/8
K:A
uE|\
kA3 cAc | ece fga | fed BAB | cAF F2E |
|:uA|\
cee dff | cee BAB | cde fga | agf fec |
a2a fed | BAB cAF | Edc BAB | cAA A2:|


